brandFactory_export/3.Masa/Data okey_Ok_3Masa.svg

<?xml version="1.0" encoding="UTF-8"?>
<svg width="24px" height="24px" viewBox="0 0 24 24" version="1.1" xmlns="http://www.w3.org/2000/svg" xmlns:xlink="http://www.w3.org/1999/xlink">
    <title>3.Masa/Data okey_Ok_3Masa</title>
    <g id="Symbols" stroke="none" stroke-width="1" fill="none" fill-rule="evenodd">
        <g id="3.Masa/Data-okey_Ok_3Masa" fill="#5CB615" fill-rule="nonzero">
            <path d="M10.3932773,12.1277311 C10.6823529,11.8453782 11.1428571,11.8453782 11.4319328,12.1277311 C11.7176471,12.410084 11.7176471,12.8672269 11.4386555,13.1495798 L11.4319328,13.1563025 L7.00168067,17.5462185 C6.71596639,17.8319328 6.25210084,17.8319328 5.96302521,17.5462185 L3.97310924,15.5731092 C3.6907563,15.2907563 3.68739496,14.8336134 3.9697479,14.5478992 L3.97310924,14.5445378 C4.26218487,14.2621849 4.72268908,14.2621849 5.01176471,14.5445378 L6.48067227,16 L10.3932773,12.1277311 L10.3932773,12.1277311 Z M10.7966387,3.78823529 C9.46554622,3.39159664 8.65546218,2.85378151 8.44033613,2.23529412 C8.44033613,2.22521008 8.44033613,2.22521008 8.4302521,2.21512605 C8.64537815,1.59663866 9.45546218,1.04537815 10.7764706,0.65210084 C12.1815126,0.231932773 14.0369748,0 16,0 C17.9663866,0 19.8218487,0.231932773 21.2134454,0.65210084 C22.6084034,1.06890756 23.394958,1.61680672 23.5697479,2.26554622 C23.5697479,2.26554622 23.5596639,2.27563025 23.5596639,2.28571429 C23.3243697,2.88739496 22.5243697,3.40504202 21.2235294,3.78823529 C19.8218487,4.20504202 17.9764706,4.43697479 16.010084,4.43697479 C14.0436975,4.43697479 12.2016807,4.20504202 10.7966387,3.78823529 Z M13.9193277,11.3142857 C13.9260504,10.8537815 13.9327731,10.4268908 13.9361345,10.1042017 L13.9327731,10.1042017 C12.497479,10.1042017 11.589916,9.5092437 10.7731092,8.97142857 C10.6084034,8.86386555 10.4436975,8.75630252 10.2756303,8.65546218 L10.2319328,8.62857143 C10.0571429,8.5210084 9.87563025,8.42352941 9.6907563,8.33277311 L9.68739496,8.32941176 C9.27058824,8.12773109 8.82689076,7.99327731 8.3697479,7.93613445 C8.16470588,7.90588235 7.94621849,7.88571429 7.70420168,7.88571429 L7.70084034,7.88571429 C6.28235294,7.88571429 5.48235294,8.41344538 4.63193277,8.97142857 C3.80840336,9.51260504 2.8907563,10.1142857 1.48571429,10.1142857 L1.47226891,10.1142857 C1.48571429,11.7176471 1.54621849,15.3579832 1.8487395,17.0756303 C2.18487395,18.9815126 5.93277311,21.2067227 7.70420168,22.0840336 C8.53109244,21.6672269 9.33781513,21.2067227 10.1142857,20.702521 L10.1176471,20.6991597 C10.5478992,20.4201681 10.9781513,20.1142857 11.3848739,19.7983193 L11.4016807,19.7848739 C12.4168067,18.9882353 13.2638655,18.107563 13.512605,17.2705882 C13.5327731,17.2033613 13.5563025,17.1361345 13.5697479,17.0722689 C13.610084,16.8369748 13.6470588,16.5613445 13.6773109,16.2655462 C13.7142857,15.9327731 13.7445378,15.5630252 13.7714286,15.1798319 L13.7882353,14.9445378 C13.8084034,14.6117647 13.8285714,14.2722689 13.8453782,13.9294118 L13.8554622,13.7378151 C13.8857143,12.897479 13.9058824,12.0436975 13.9193277,11.3142857 L13.9193277,11.3142857 Z M16.0134454,10.3966387 C15.8084034,10.3966387 15.6067227,10.3865546 15.4016807,10.3831933 C15.3983193,10.6789916 15.394958,11.0218487 15.3882353,11.3983193 C15.5966387,11.405042 15.8016807,11.4151261 16.0134454,11.4151261 C18.0840336,11.4151261 20.0403361,11.1697479 21.5260504,10.7226891 C22.3663866,10.4806723 23.0823529,10.1344538 23.6268908,9.71764706 L23.6268908,14.2252101 C23.3714286,14.702521 22.6117647,15.3310924 21.2302521,15.7478992 C19.8352941,16.1647059 17.9831933,16.3966387 16.0168067,16.3966387 C15.7210084,16.3966387 15.4319328,16.3831933 15.1428571,16.3731092 C15.1058824,16.7226891 15.0655462,17.0487395 15.0151261,17.3243697 C15.0117647,17.3445378 15.0016807,17.3647059 15.0016807,17.3815126 C15.3378151,17.394958 15.6739496,17.4117647 16.0168067,17.4117647 C18.087395,17.4117647 20.0436975,17.1663866 21.5294118,16.7193277 C22.3697479,16.4773109 23.0857143,16.1210084 23.6302521,15.7042017 L23.6302521,19.7142857 C23.6302521,20.5042017 22.8201681,21.1563025 21.2235294,21.6336134 C19.8184874,22.0504202 17.9663866,22.2823529 16.010084,22.2823529 C14.2319328,22.2823529 12.5613445,22.0806723 11.2067227,21.7344538 C10.1915966,22.4168067 9.12605042,23.0218487 8.02352941,23.5495798 C7.82521008,23.6436975 7.59663866,23.6436975 7.39495798,23.5495798 C6.72941176,23.2470588 0.951260504,20.4571429 0.403361345,17.3277311 C-0.0134453782,14.9714286 -4.93861456e-05,9.55294118 -4.93861456e-05,9.3210084 C-4.93861456e-05,9.09579832 0.107563025,8.88739496 0.282352941,8.74957983 C0.460504202,8.61176471 0.692436975,8.56470588 0.91092437,8.61848739 C2.20504202,8.81008403 2.91764706,8.34957983 3.81848739,7.76134454 C4.76638655,7.1394958 5.83865546,6.43361345 7.69747899,6.43361345 L7.70420168,6.43361345 C7.9394958,6.43361345 8.15798319,6.44705882 8.36638655,6.46386555 L8.36638655,3.74789916 C8.88067227,4.15462185 9.58655462,4.49747899 10.497479,4.76302521 C11.9932773,5.21008403 13.9495798,5.45546218 16.010084,5.45546218 C18.0672269,5.45546218 20.0235294,5.21008403 21.5193277,4.76302521 C22.410084,4.50084034 23.1092437,4.17478992 23.6201681,3.76806723 L23.6201681,8.23529412 C23.3647059,8.71260504 22.605042,9.34117647 21.2235294,9.75798319 C19.8319328,10.1747899 17.9798319,10.3966387 16.0134454,10.3966387 Z" id="Data-okey_Ok_3Masa"></path>
        </g>
    </g>
</svg>

<svg width="24" height="24" viewBox="0 0 24 24" xmlns="http://www.w3.org/2000/svg"><path d="M10.393 12.128a.743.743 0 011.039 0c.286.282.286.74.007 1.022l-.007.006-4.43 4.39a.736.736 0 01-1.039 0l-1.99-1.973a.726.726 0 01-.003-1.025l.003-.003a.743.743 0 011.039 0L6.48 16l3.912-3.872zm.404-8.34c-1.331-.396-2.142-.934-2.357-1.553 0-.01 0-.01-.01-.02.215-.618 1.025-1.17 2.346-1.563C12.182.232 14.037 0 16 0c1.966 0 3.822.232 5.213.652 1.395.417 2.182.965 2.357 1.614 0 0-.01.01-.01.02-.236.601-1.036 1.119-2.336 1.502-1.402.417-3.248.649-5.214.649-1.966 0-3.808-.232-5.213-.649zm3.122 7.526c.007-.46.014-.887.017-1.21h-.003c-1.436 0-2.343-.595-3.16-1.133-.165-.107-.33-.215-.497-.316l-.044-.026a6.478 6.478 0 00-.541-.296l-.004-.004a4.229 4.229 0 00-1.317-.393 4.505 4.505 0 00-.666-.05h-.003c-1.419 0-2.219.527-3.07 1.085-.823.542-1.74 1.143-3.145 1.143h-.014c.014 1.604.074 5.244.377 6.962.336 1.906 4.084 4.13 5.855 5.008a25.514 25.514 0 002.41-1.381l.004-.004c.43-.279.86-.585 1.267-.9l.017-.014c1.015-.797 1.862-1.677 2.11-2.514.02-.068.044-.135.058-.199.04-.235.077-.51.107-.806.037-.333.068-.703.094-1.086l.017-.235c.02-.333.04-.673.057-1.016l.01-.191c.03-.84.05-1.694.064-2.424zm2.094-.917c-.205 0-.406-.01-.611-.014-.004.296-.007.639-.014 1.015.209.007.414.017.625.017 2.071 0 4.027-.245 5.513-.692.84-.242 1.556-.589 2.1-1.005v4.507c-.255.478-1.014 1.106-2.396 1.523-1.395.417-3.247.649-5.213.649-.296 0-.585-.014-.874-.024-.037.35-.077.676-.128.951-.003.02-.013.04-.013.058.336.013.672.03 1.015.03 2.07 0 4.027-.246 5.512-.693.84-.242 1.557-.598 2.101-1.015v4.01c0 .79-.81 1.442-2.406 1.92-1.406.416-3.258.648-5.214.648-1.778 0-3.449-.201-4.803-.548a25.233 25.233 0 01-3.183 1.816.735.735 0 01-.629 0c-.666-.303-6.444-3.093-6.992-6.222C-.013 14.97 0 9.553 0 9.32a.73.73 0 01.91-.703c1.295.192 2.008-.268 2.908-.857.948-.622 2.02-1.327 3.88-1.327h.006c.235 0 .454.013.662.03V3.748c.515.407 1.22.75 2.131 1.015 1.496.447 3.453.692 5.513.692 2.057 0 4.014-.245 5.51-.692.89-.262 1.59-.588 2.1-.995v4.467c-.255.478-1.015 1.106-2.396 1.523-1.392.417-3.244.639-5.21.639z" fill="#5CB615" fill-rule="nonzero"/></svg>
